groups/nitrogen/imide.svg

<?xml version='1.0' encoding='iso-8859-1'?>
<svg version='1.1' baseProfile='full'
              xmlns='http://www.w3.org/2000/svg'
                      xmlns:rdkit='http://www.rdkit.org/xml'
                      xmlns:xlink='http://www.w3.org/1999/xlink'
                  xml:space='preserve'
width='256px' height='256px' viewBox='0 0 256 256'>
<!-- END OF HEADER -->
<rect style='opacity:1.0;fill:#FFFFFF;stroke:none' width='256.0' height='256.0' x='0.0' y='0.0'> </rect>
<path class='bond-0 atom-0 atom-1' d='M 25.4,149.2 L 69.3,124.0' style='fill:none;fill-rule:evenodd;stroke:#000000;stroke-width:2.0px;stroke-linecap:butt;stroke-linejoin:miter;stroke-opacity:1' />
<path class='bond-1 atom-1 atom-2' d='M 73.1,126.2 L 73.2,90.3' style='fill:none;fill-rule:evenodd;stroke:#000000;stroke-width:2.0px;stroke-linecap:butt;stroke-linejoin:miter;stroke-opacity:1' />
<path class='bond-1 atom-1 atom-2' d='M 65.5,126.2 L 65.6,90.2' style='fill:none;fill-rule:evenodd;stroke:#000000;stroke-width:2.0px;stroke-linecap:butt;stroke-linejoin:miter;stroke-opacity:1' />
<path class='bond-2 atom-1 atom-3' d='M 69.3,124.0 L 102.3,143.2' style='fill:none;fill-rule:evenodd;stroke:#000000;stroke-width:2.0px;stroke-linecap:butt;stroke-linejoin:miter;stroke-opacity:1' />
<path class='bond-3 atom-3 atom-4' d='M 123.9,143.2 L 157.0,124.2' style='fill:none;fill-rule:evenodd;stroke:#000000;stroke-width:2.0px;stroke-linecap:butt;stroke-linejoin:miter;stroke-opacity:1' />
<path class='bond-4 atom-4 atom-5' d='M 160.8,126.4 L 160.8,90.4' style='fill:none;fill-rule:evenodd;stroke:#000000;stroke-width:2.0px;stroke-linecap:butt;stroke-linejoin:miter;stroke-opacity:1' />
<path class='bond-4 atom-4 atom-5' d='M 153.2,126.4 L 153.2,90.4' style='fill:none;fill-rule:evenodd;stroke:#000000;stroke-width:2.0px;stroke-linecap:butt;stroke-linejoin:miter;stroke-opacity:1' />
<path class='bond-5 atom-4 atom-6' d='M 157.0,124.2 L 190.0,143.3' style='fill:none;fill-rule:evenodd;stroke:#000000;stroke-width:2.0px;stroke-linecap:butt;stroke-linejoin:miter;stroke-opacity:1' />
<path d='M 67.1,125.3 L 69.3,124.0 L 70.9,125.0' style='fill:none;stroke:#000000;stroke-width:2.0px;stroke-linecap:butt;stroke-linejoin:miter;stroke-miterlimit:10;stroke-opacity:1;' />
<path d='M 155.3,125.1 L 157.0,124.2 L 158.6,125.1' style='fill:none;stroke:#000000;stroke-width:2.0px;stroke-linecap:butt;stroke-linejoin:miter;stroke-miterlimit:10;stroke-opacity:1;' />
<path class='atom-1' d='M38.0126,171.173 C39.6584,170.228 38.3978,168.033 36.752,168.979 C35.1062,169.924 33.8456,167.73 35.4914,166.784 C37.1371,165.839 35.8765,163.645 34.2307,164.59 C32.585,165.536 31.3244,163.341 32.9701,162.396 C34.6159,161.45 33.3552,159.256 31.7095,160.201 C30.0637,161.147 28.8031,158.953 30.4488,158.007 C32.0946,157.062 30.834,154.867 29.1882,155.813 C27.5425,156.758 26.2818,154.564 27.9276,153.618 C29.5733,152.673 28.3127,150.479 26.6669,151.424 C25.0212,152.37 23.7606,150.175 25.4063,149.23 C27.0521,148.284 25.7914,146.09 24.1457,147.035 C22.4999,147.981 21.2393,145.787 22.8851,144.841 C24.5308,143.896 23.2702,141.701 21.6244,142.647 C19.9787,143.592 18.718,141.398 20.3638,140.452 C22.0095,139.507 20.7489,137.313 19.1032,138.258 C17.4574,139.204 16.1968,137.009 17.8425,136.064 C19.4883,135.118 18.2276,132.924 16.5819,133.869 C14.9361,134.815 13.6755,132.621 15.3213,131.675 C16.967,130.73 15.7064,128.535 14.0606,129.481 C12.4149,130.426 11.1542,128.232 12.8,127.286' style='fill:none;stroke:#7F7F7F;stroke-width:2.0px;stroke-linecap:butt;stroke-linejoin:miter;stroke-opacity:1' />
<text x='60.3' y='88.6' class='atom-2' style='font-size:30px;font-style:normal;font-weight:normal;fill-opacity:1;stroke:none;font-family:sans-serif;text-anchor:start;fill:#000000' >O</text>
<text x='104.0' y='164.6' class='atom-3' style='font-size:30px;font-style:normal;font-weight:normal;fill-opacity:1;stroke:none;font-family:sans-serif;text-anchor:start;fill:#000000' >N</text>
<text x='104.0' y='191.3' class='atom-3' style='font-size:30px;font-style:normal;font-weight:normal;fill-opacity:1;stroke:none;font-family:sans-serif;text-anchor:start;fill:#000000' >H</text>
<text x='148.0' y='88.8' class='atom-5' style='font-size:30px;font-style:normal;font-weight:normal;fill-opacity:1;stroke:none;font-family:sans-serif;text-anchor:start;fill:#000000' >O</text>
<text x='191.6' y='164.8' class='atom-6' style='font-size:30px;font-style:normal;font-weight:normal;fill-opacity:1;stroke:none;font-family:sans-serif;text-anchor:start;fill:#000000' >C</text>
<text x='212.6' y='164.8' class='atom-6' style='font-size:30px;font-style:normal;font-weight:normal;fill-opacity:1;stroke:none;font-family:sans-serif;text-anchor:start;fill:#000000' >H</text>
<text x='233.5' y='176.9' class='atom-6' style='font-size:20px;font-style:normal;font-weight:normal;fill-opacity:1;stroke:none;font-family:sans-serif;text-anchor:start;fill:#000000' >3</text>
</svg>

<svg height="256" viewBox="0 0 256 256" width="256" xmlns="http://www.w3.org/2000/svg"><path d="m0 0h256v256h-256z" fill="#fff"/><g fill="none" stroke-width="2"><path d="m25.4 149.2 43.9-25.2" stroke="#000"/><path d="m73.1 126.2.1-35.9" stroke="#000"/><path d="m65.5 126.2.1-36" stroke="#000"/><path d="m69.3 124 33 19.2" stroke="#000"/><path d="m123.9 143.2 33.1-19" stroke="#000"/><path d="m160.8 126.4v-36" stroke="#000"/><path d="m153.2 126.4v-36" stroke="#000"/><path d="m157 124.2 33 19.1" stroke="#000"/><path d="m67.1 125.3 2.2-1.3 1.6 1" stroke="#000" stroke-miterlimit="10"/><path d="m155.3 125.1 1.7-.9 1.6.9" stroke="#000" stroke-miterlimit="10"/><path d="m38.013 171.173c1.645-.945.385-3.14-1.261-2.194-1.646.945-2.906-1.249-1.261-2.195 1.646-.945.386-3.139-1.26-2.194-1.646.946-2.907-1.249-1.261-2.194 1.646-.946.385-3.14-1.26-2.195-1.646.946-2.907-1.248-1.261-2.194 1.646-.945.385-3.14-1.261-2.194-1.645.945-2.906-1.249-1.26-2.195 1.645-.945.385-3.139-1.261-2.194-1.646.946-2.906-1.249-1.261-2.194 1.646-.946.385-3.14-1.26-2.195-1.646.946-2.907-1.248-1.261-2.194 1.646-.945.385-3.14-1.261-2.194-1.645.945-2.906-1.249-1.26-2.195 1.646-.945.385-3.139-1.261-2.194-1.646.946-2.906-1.249-1.26-2.194 1.645-.946.385-3.14-1.261-2.195-1.646.946-2.906-1.248-1.261-2.194 1.646-.945.385-3.14-1.26-2.194-1.646.945-2.907-1.249-1.261-2.195" stroke="#7f7f7f"/></g><text font-family="sans-serif" font-size="30" x="60.3" y="88.6">O</text><text font-family="sans-serif" font-size="30" x="104" y="164.6">N</text><text font-family="sans-serif" font-size="30" x="104" y="191.3">H</text><text font-family="sans-serif" font-size="30" x="148" y="88.8">O</text><text font-family="sans-serif" font-size="30" x="191.6" y="164.8">C</text><text font-family="sans-serif" font-size="30" x="212.6" y="164.8">H</text><text font-family="sans-serif" font-size="20" x="233.5" y="176.9">3</text></svg>
